X: 1
T: Opera Reel
B: Cole p.__
Z: 1997 by John Chambers <jc:trillian.mit.edu>
M: 2/4
L: 1/16
K: D
(3A,B,C \
|: "D"D2D2 FEFA | DCDF "A7"EDCA, | "D"D2D2 FEFA |1 "G"BdAF "A7"EDCE :|2 "G"BdAF "A7"~E2 ||
|: (3ABc \
| "D"dcec dAFA | Adcd "A7"egfe | "D"dcec dAFA | "G"BdAF "A7"~E2 :|
|: fg \
| "D"afaf "A7"gfge | "D"fafe "A7"dcBA | "D"afaf "Em"gfge | "A7"faec "D"d2 :|
|: (3ABc \
| "D"defd "A7"efge | "D"faec "A7"dcBA | "D"defd "Em"efge | "A7"faec "D"d2 :|
